static/images/past-sponsors/solana.svg

<svg fill="none" height="60" viewBox="0 0 300 60" width="300" xmlns="http://www.w3.org/2000/svg" xmlns:xlink="http://www.w3.org/1999/xlink"><linearGradient id="a" gradientUnits="userSpaceOnUse" x1="24.5869" x2="60.2476" y1="49.0044" y2="8.97457"><stop offset=".08" stop-color="#9945ff"/><stop offset=".3" stop-color="#8752f3"/><stop offset=".5" stop-color="#5497d5"/><stop offset=".6" stop-color="#43b4ca"/><stop offset=".72" stop-color="#28e0b9"/><stop offset=".97" stop-color="#19fb9b"/></linearGradient><mask id="b" height="40" maskUnits="userSpaceOnUse" width="260" x="20" y="9"><path d="m280 9.23438h-260v38.84212h260z" fill="#fff"/></mask><mask id="c" height="40" maskUnits="userSpaceOnUse" width="260" x="20" y="9"><path d="m280 9.23438h-260v38.84212h260z" fill="#fff"/></mask><g mask="url(#b)"><g mask="url(#c)"><path d="m63.9629 39.8603-7.1392 7.6767c-.1554.1679-.3432.3023-.5518.3951-.2087.0928-.4341.142-.6623.1444h-33.843c-.1613-.0011-.3188-.0492-.4534-.1383-.1346-.0894-.2405-.216-.3048-.3645-.0643-.1487-.0842-.3127-.0574-.4726.0269-.1597.0993-.3081.2086-.4272l7.1393-7.6875c.1553-.1679.343-.3024.5517-.3952.2088-.0927.4341-.1419.6623-.1443h33.843c.1633-.0009.3234.0464.4603.1364.1366.0897.2441.2179.309.3685.0646.1509.0838.3172.055.4789-.029.1614-.1045.3109-.2173.4296zm-7.1392-15.4829c-.1547-.1687-.3423-.3037-.5512-.3965-.2088-.0928-.4345-.1415-.6629-.143h-33.843c-.1613-.0003-.3192.0467-.4542.1352-.1351.0886-.2414.2149-.3059.3634s-.0844.3126-.0572.4723.1003.3079.2103.4264l7.1393 7.6983c.1547.1687.3423.3036.5511.3964.2089.0928.4345.1415.6629.143h33.843c.1614.0005.3191-.0466.4543-.1353.1349-.0884.2413-.2147.3057-.3631.0647-.1485.0845-.3127.0572-.4724-.0271-.1597-.1001-.3079-.2102-.4264zm-35.0571-5.5242h33.843c.2282-.0025.4536-.0516.6623-.1443.2086-.0928.3964-.2272.5518-.3952l7.1392-7.6767c.1092-.1191.1818-.2676.2087-.4273.0268-.1598.0069-.32389-.0576-.47246-.0643-.14856-.1702-.27517-.3047-.36444-.1345-.08928-.292-.13736-.4534-.13842h-33.843c-.2282.00246-.4535.05156-.6623.14431-.2087.09274-.3964.2272-.5517.39516l-7.1393 7.67675c-.1093.1191-.1817.2676-.2086.4273-.0268.1597-.0069.3239.0574.4724.0643.1486.1702.2752.3048.3645.1346.0892.2921.1373.4534.1384z" fill="url(#a)"/><g fill="#000"><path d="m105 25.634h-18.0928v-6.0421h22.8038v-6.0421h-22.8468c-1.5843 0-3.1037.632-4.2241 1.757-1.1201 1.1251-1.7495 2.6509-1.7495 4.242v6.1284c0 .7878.1545 1.5679.4547 2.2957s.7402 1.3891 1.2948 1.9462c1.1204 1.125 2.6398 1.757 4.2241 1.757h18.0928v6.0421h-23.6366v6.0421h23.6796c1.584 0 3.103-.632 4.224-1.7569 1.12-1.1252 1.749-2.651 1.749-4.242v-6.1284c0-.7879-.154-1.5679-.454-2.2957-.301-.7279-.741-1.3892-1.295-1.9462-.555-.5571-1.213-.999-1.938-1.3004-.725-.3015-1.502-.4567-2.286-.4567z"/><path d="m140.013 13.5498h-18.141c-1.584 0-3.104.632-4.224 1.757-1.12 1.1251-1.75 2.6509-1.75 4.242v18.2126c0 1.591.63 3.1168 1.75 4.242 1.12 1.1249 2.64 1.7569 4.224 1.7569h18.141c.784 0 1.561-.1551 2.285-.4568.724-.3015 1.383-.7434 1.937-1.3006.554-.5571.994-1.2185 1.293-1.9462.3-.7278.454-1.5077.453-2.2953v-18.2126c.001-.7876-.153-1.5675-.453-2.2953-.299-.7278-.739-1.3892-1.293-1.9463-.554-.5572-1.213-.9991-1.937-1.3007-.724-.3015-1.501-.4567-2.285-.4567zm-.048 24.1684h-18.05v-18.1263h18.05z"/><path d="m203.58 13.5498h-17.728c-.784 0-1.561.1552-2.286.4566-.724.3015-1.383.7434-1.938 1.3004-.554.5571-.994 1.2184-1.294 1.9463-.301.7278-.455 1.5078-.455 2.2957v24.2115h6.016v-9.9263h17.62v9.9263h6.017v-24.2115c0-1.5873-.627-3.1099-1.742-4.2343-1.116-1.1244-2.63-1.759-4.21-1.7647zm-.043 14.2421h-17.62v-8.2h17.62z"/><path d="m274.027 13.5498h-17.727c-1.58.0057-3.094.6403-4.21 1.7647-1.115 1.1244-1.742 2.647-1.742 4.2343v24.2115h6.016v-9.9263h17.62v9.9263h6.017v-24.2115c0-.7879-.155-1.5679-.454-2.2957-.301-.7279-.741-1.3892-1.296-1.9463-.554-.557-1.214-.9989-1.938-1.3004-.724-.3014-1.502-.4566-2.286-.4566zm-.043 14.2421h-17.62v-8.2h17.62z"/><path d="m238.975 37.7182h-2.406l-8.596-21.6544c-.298-.7462-.814-1.3851-1.478-1.8334-.665-.4483-1.449-.6854-2.25-.6805h-5.372c-1.056 0-2.068.4212-2.815 1.1708-.746.7497-1.165 1.7665-1.165 2.8267v26.2129h6.016v-24.1683h2.407l8.627 21.6544c.296.7447.809 1.3826 1.471 1.8307.662.4485 1.442.6865 2.242.6832h5.372c.522 0 1.04-.1033 1.523-.3042.481-.2009.922-.4953 1.291-.8664.37-.3714.662-.812.862-1.2969.2-.4851.303-1.0049.303-1.53v-26.2129h-6.017z"/><path d="m157.354 13.5498h-6.016v24.2116c0 1.591.629 3.1168 1.749 4.242 1.121 1.1249 2.64 1.7569 4.224 1.7569h18.093v-6.0421h-18.05z"/></g></g></g></svg>

<svg width="300" height="60" viewBox="0 0 300 60" fill="none" xmlns="http://www.w3.org/2000/svg">
<mask id="mask0_2265_30865" style="mask-type:luminance" maskUnits="userSpaceOnUse" x="20" y="9" width="260" height="40">
<path d="M280 9.23438H20V48.0765H280V9.23438Z" fill="white"/>
</mask>
<g mask="url(#mask0_2265_30865)">
<mask id="mask1_2265_30865" style="mask-type:luminance" maskUnits="userSpaceOnUse" x="20" y="9" width="260" height="40">
<path d="M280 9.23438H20V48.0765H280V9.23438Z" fill="white"/>
</mask>
<g mask="url(#mask1_2265_30865)">
<path d="M63.9629 39.8603L56.8237 47.537C56.6683 47.7049 56.4805 47.8393 56.2719 47.9321C56.0632 48.0249 55.8378 48.0741 55.6096 48.0765H21.7666C21.6053 48.0754 21.4478 48.0273 21.3132 47.9382C21.1786 47.8488 21.0727 47.7222 21.0084 47.5737C20.9441 47.425 20.9242 47.261 20.951 47.1011C20.9779 46.9414 21.0503 46.793 21.1596 46.6739L28.2989 38.9864C28.4542 38.8185 28.6419 38.684 28.8506 38.5912C29.0594 38.4985 29.2847 38.4493 29.5129 38.4469H63.3559C63.5192 38.446 63.6793 38.4933 63.8162 38.5833C63.9528 38.673 64.0603 38.8012 64.1252 38.9518C64.1898 39.1027 64.209 39.269 64.1802 39.4307C64.1512 39.5921 64.0757 39.7416 63.9629 39.8603ZM56.8237 24.3774C56.669 24.2087 56.4814 24.0737 56.2725 23.9809C56.0637 23.8881 55.838 23.8394 55.6096 23.8379H21.7666C21.6053 23.8376 21.4474 23.8846 21.3124 23.9731C21.1773 24.0617 21.071 24.188 21.0065 24.3365C20.942 24.485 20.9221 24.6491 20.9493 24.8088C20.9765 24.9685 21.0496 25.1167 21.1596 25.2352L28.2989 32.9335C28.4536 33.1022 28.6412 33.2371 28.85 33.3299C29.0589 33.4227 29.2845 33.4714 29.5129 33.4729H63.3559C63.5173 33.4734 63.675 33.4263 63.8102 33.3376C63.9451 33.2492 64.0515 33.1229 64.1159 32.9745C64.1806 32.826 64.2004 32.6618 64.1731 32.5021C64.146 32.3424 64.073 32.1942 63.9629 32.0757L56.8237 24.3774ZM21.7666 18.8532H55.6096C55.8378 18.8507 56.0632 18.8016 56.2719 18.7089C56.4805 18.6161 56.6683 18.4817 56.8237 18.3137L63.9629 10.637C64.0721 10.5179 64.1447 10.3694 64.1716 10.2097C64.1984 10.0499 64.1785 9.88581 64.114 9.73724C64.0497 9.58868 63.9438 9.46207 63.8093 9.3728C63.6748 9.28352 63.5173 9.23544 63.3559 9.23438H29.5129C29.2847 9.23684 29.0594 9.28594 28.8506 9.37869C28.6419 9.47143 28.4542 9.60589 28.2989 9.77385L21.1596 17.4506C21.0503 17.5697 20.9779 17.7182 20.951 17.8779C20.9242 18.0376 20.9441 18.2018 21.0084 18.3503C21.0727 18.4989 21.1786 18.6255 21.3132 18.7148C21.4478 18.804 21.6053 18.8521 21.7666 18.8532Z" fill="url(#paint0_linear_2265_30865)"/>
<path d="M105 25.634H86.9072V19.5919H109.711V13.5498H86.8642C85.2799 13.5498 83.7605 14.1818 82.6401 15.3068C81.52 16.4319 80.8906 17.9577 80.8906 19.5488V25.6772C80.8906 26.465 81.0451 27.2451 81.3453 27.9729C81.6455 28.7007 82.0855 29.362 82.6401 29.9191C83.7605 31.0441 85.2799 31.6761 86.8642 31.6761H104.957V37.7182H81.3204V43.7603H105C106.584 43.7603 108.103 43.1283 109.224 42.0034C110.344 40.8782 110.973 39.3524 110.973 37.7614V31.633C110.973 30.8451 110.819 30.0651 110.519 29.3373C110.218 28.6094 109.778 27.9481 109.224 27.3911C108.669 26.834 108.011 26.3921 107.286 26.0907C106.561 25.7892 105.784 25.634 105 25.634Z" fill="black"/>
<path d="M140.013 13.5498H121.872C120.288 13.5498 118.768 14.1818 117.648 15.3068C116.528 16.4319 115.898 17.9577 115.898 19.5488V37.7614C115.898 39.3524 116.528 40.8782 117.648 42.0034C118.768 43.1283 120.288 43.7603 121.872 43.7603H140.013C140.797 43.7603 141.574 43.6052 142.298 43.3035C143.022 43.002 143.681 42.5601 144.235 42.0029C144.789 41.4458 145.229 40.7844 145.528 40.0567C145.828 39.3289 145.982 38.549 145.981 37.7614V19.5488C145.982 18.7612 145.828 17.9813 145.528 17.2535C145.229 16.5257 144.789 15.8643 144.235 15.3072C143.681 14.75 143.022 14.3081 142.298 14.0065C141.574 13.705 140.797 13.5498 140.013 13.5498ZM139.965 37.7182H121.915V19.5919H139.965V37.7182Z" fill="black"/>
<path d="M203.58 13.5498H185.852C185.068 13.5498 184.291 13.705 183.566 14.0064C182.842 14.3079 182.183 14.7498 181.628 15.3068C181.074 15.8639 180.634 16.5252 180.334 17.2531C180.033 17.9809 179.879 18.7609 179.879 19.5488V43.7603H185.895V33.834H203.515V43.7603H209.532V19.5488C209.532 17.9615 208.905 16.4389 207.79 15.3145C206.674 14.1901 205.16 13.5555 203.58 13.5498ZM203.537 27.7919H185.917V19.5919H203.537V27.7919Z" fill="black"/>
<path d="M274.027 13.5498H256.3C254.72 13.5555 253.206 14.1901 252.09 15.3145C250.975 16.4389 250.348 17.9615 250.348 19.5488V43.7603H256.364V33.834H273.984V43.7603H280.001V19.5488C280.001 18.7609 279.846 17.9809 279.547 17.2531C279.246 16.5252 278.806 15.8639 278.251 15.3068C277.697 14.7498 277.037 14.3079 276.313 14.0064C275.589 13.705 274.811 13.5498 274.027 13.5498ZM273.984 27.7919H256.364V19.5919H273.984V27.7919Z" fill="black"/>
<path d="M238.975 37.7182H236.569L227.973 16.0638C227.675 15.3176 227.159 14.6787 226.495 14.2304C225.83 13.7821 225.046 13.545 224.245 13.5499H218.873C217.817 13.5499 216.805 13.9711 216.058 14.7207C215.312 15.4704 214.893 16.4872 214.893 17.5474V43.7603H220.909V19.592H223.316L231.943 41.2464C232.239 41.9911 232.752 42.629 233.414 43.0771C234.076 43.5256 234.856 43.7636 235.656 43.7603H241.028C241.55 43.7603 242.068 43.657 242.551 43.4561C243.032 43.2552 243.473 42.9608 243.842 42.5897C244.212 42.2183 244.504 41.7777 244.704 41.2928C244.904 40.8077 245.007 40.2879 245.007 39.7628V13.5499H238.99L238.975 37.7182Z" fill="black"/>
<path d="M157.354 13.5498H151.338V37.7614C151.338 39.3524 151.967 40.8782 153.087 42.0034C154.208 43.1283 155.727 43.7603 157.311 43.7603H175.404V37.7182H157.354V13.5498Z" fill="black"/>
</g>
</g>
<defs>
<linearGradient id="paint0_linear_2265_30865" x1="24.5869" y1="49.0044" x2="60.2476" y2="8.97457" gradientUnits="userSpaceOnUse">
<stop offset="0.08" stop-color="#9945FF"/>
<stop offset="0.3" stop-color="#8752F3"/>
<stop offset="0.5" stop-color="#5497D5"/>
<stop offset="0.6" stop-color="#43B4CA"/>
<stop offset="0.72" stop-color="#28E0B9"/>
<stop offset="0.97" stop-color="#19FB9B"/>
</linearGradient>
</defs>
</svg>
